bundles/org.openhab.ui.habpanel/web/assets/icons/smarthome-set/weather.svg

<?xml version="1.0" encoding="UTF-8" standalone="no"?>
<svg width="32px" height="32px" viewBox="0 0 32 32" version="1.1" xmlns="http://www.w3.org/2000/svg" xmlns:xlink="http://www.w3.org/1999/xlink" xmlns:sketch="http://www.bohemiancoding.com/sketch/ns">
    <!-- Generator: Sketch 3.3.2 (12043) - http://www.bohemiancoding.com/sketch -->
    <title>weather</title>
    <desc>Created with Sketch.</desc>
    <defs></defs>
    <g id="flatten" stroke="none" stroke-width="1" fill="none" fill-rule="evenodd" sketch:type="MSPage">
        <g id="z-copy" sketch:type="MSArtboardGroup" transform="translate(-68.000000, -196.000000)" fill="#000000">
            <g id="weather" sketch:type="MSLayerGroup" transform="translate(68.000000, 196.000000)">
                <path d="M23.7953855,19.0814387 C23.5322676,19.0279052 23.2661338,19 23,19 C23,18.3074459 22.9119979,17.6354457 22.7465659,16.9945719 L22.7465659,16.9945719 C25.6697087,16.8656098 28,14.4549393 28,11.5 C28,8.46243388 25.5375661,6 22.5,6 C19.5450607,6 17.1343902,8.33029131 17.0054281,11.2534341 C16.3645543,11.0880021 15.6925541,11 15,11 C14.6885288,11 14.3796645,11.0184659 14.0746751,11.0544018 C14.149681,10.8778654 14.2884203,10.727811 14.5224461,10.5322054 C14.4387159,10.6021895 14.8894038,10.2331833 15.0137537,10.1215995 C15.4352636,9.74336279 15.7391654,9.34186732 15.9662516,8.79363279 C16.2522286,8.1032232 16.2826974,7.60299552 16.1965569,6.76398124 C16.1435695,6.24787991 16.1448156,6.08107573 16.2190022,5.88334777 C16.2672953,5.75463291 16.3518471,5.62733765 16.4895924,5.48959236 C16.6273377,5.35184707 16.7546329,5.26729533 16.8833478,5.21900216 C17.0810757,5.1448156 17.2478799,5.14356948 17.7639812,5.19655693 C18.6029955,5.28269742 19.1032232,5.25222858 19.7936328,4.96625157 C20.3418673,4.73916539 20.7433628,4.43526363 21.1215995,4.01375366 C21.2331833,3.88940376 21.6021895,3.43871586 21.5322054,3.52244612 C21.8676645,3.12109715 22.0691509,3 22.5,3 C22.9308491,3 23.1323355,3.12109715 23.4677946,3.52244612 C23.3978105,3.43871586 23.7668167,3.88940376 23.8784005,4.01375366 C24.2566372,4.43526363 24.6581327,4.73916539 25.2063672,4.96625157 C25.8967768,5.25222858 26.3970045,5.28269742 27.2360188,5.19655693 C27.7521201,5.14356948 27.9189243,5.1448156 28.1166522,5.21900216 C28.2453671,5.26729533 28.3726623,5.35184707 28.5104076,5.48959236 C28.6481529,5.62733765 28.7327047,5.75463291 28.7809978,5.88334777 C28.8551844,6.08107573 28.8564305,6.24787991 28.8034431,6.76398124 C28.7173026,7.60299552 28.7477714,8.1032232 29.0337484,8.79363279 C29.2608346,9.34186732 29.5647364,9.74336279 29.9862463,10.1215995 C30.1105962,10.2331833 30.5612841,10.6021895 30.4775539,10.5322054 C30.8789029,10.8676645 31,11.0691509 31,11.5 C31,11.9308491 30.8789029,12.1323355 30.4775539,12.4677946 C30.5612841,12.3978105 30.1105962,12.7668167 29.9862463,12.8784005 C29.5647364,13.2566372 29.2608346,13.6581327 29.0337484,14.2063672 C28.7477714,14.8967768 28.7173026,15.3970045 28.8034431,16.2360188 C28.8564305,16.7521201 28.8551844,16.9189243 28.7809978,17.1166522 C28.7327047,17.2453671 28.6481529,17.3726623 28.5104076,17.5104076 C28.3726623,17.6481529 28.2453671,17.7327047 28.1166522,17.7809978 C27.9189243,17.8551844 27.7521201,17.8564305 27.2360188,17.8034431 C26.3970045,17.7173026 25.8967768,17.7477714 25.2063672,18.0337484 C24.6069866,18.28202 24.2213209,18.5878494 23.7953855,19.0814387 Z M24.8386023,19.433484 C26.595171,20.2691384 28,22.2229767 28,24.5 C28,27.5375661 25.5375661,30 22.5,30 L7,30 C3.13400675,30 0,26.8659932 0,23 C0,19.1340068 4,16 7.5,16 C8.46425057,13.6657801 10.5489024,11.8890107 13.0102136,11.2537464 C13.0648898,10.6259659 13.3408768,10.216488 13.8811322,9.76492673 C13.8148647,9.82031504 14.2413311,9.47114052 14.3458845,9.37732082 C14.6628743,9.09287394 14.8771902,8.80973358 15.042372,8.41094935 C15.2509794,7.90732671 15.272467,7.55455003 15.2017861,6.86611305 C15.1327537,6.1937329 15.1347502,5.92647996 15.282733,5.53206421 C15.382949,5.26496063 15.547011,5.01796014 15.7824856,4.78248558 C16.0179601,4.54701102 16.2649606,4.38294898 16.5320642,4.28273304 C16.92648,4.1347502 17.1937329,4.13275367 17.866113,4.20178605 C18.55455,4.27246697 18.9073267,4.25097937 19.4109494,4.04237204 C19.8097336,3.8771902 20.0928739,3.66287433 20.3773208,3.34588448 C20.4711405,3.24133107 20.820315,2.81486472 20.7649267,2.88113222 C21.2729539,2.27332009 21.7277149,2 22.5,2 C23.2722851,2 23.7270461,2.27332009 24.2350733,2.88113222 C24.179685,2.81486472 24.5288595,3.24133107 24.6226792,3.34588448 C24.9071261,3.66287433 25.1902664,3.8771902 25.5890506,4.04237204 C26.0926733,4.25097937 26.44545,4.27246697 27.133887,4.20178605 C27.8062671,4.13275367 28.07352,4.1347502 28.4679358,4.28273304 C28.7350394,4.38294898 28.9820399,4.54701102 29.2175144,4.78248558 C29.452989,5.01796014 29.617051,5.26496063 29.717267,5.53206421 C29.8652498,5.92647996 29.8672463,6.1937329 29.7982139,6.86611305 C29.727533,7.55455003 29.7490206,7.90732671 29.957628,8.41094935 C30.1228098,8.80973358 30.3371257,9.09287394 30.6541155,9.37732082 C30.7586689,9.47114052 31.1851353,9.82031504 31.1188678,9.76492673 C31.7266799,10.2729539 32,10.7277149 32,11.5 C32,12.2722851 31.7266799,12.7270461 31.1188678,13.2350733 C31.1851353,13.179685 30.7586689,13.5288595 30.6541155,13.6226792 C30.3371257,13.9071261 30.1228098,14.1902664 29.957628,14.5890506 C29.7490206,15.0926733 29.727533,15.44545 29.7982139,16.133887 C29.8672463,16.8062671 29.8652498,17.07352 29.717267,17.4679358 C29.617051,17.7350394 29.452989,17.9820399 29.2175144,18.2175144 C28.9820399,18.452989 28.7350394,18.617051 28.4679358,18.717267 C28.07352,18.8652498 27.8062671,18.8672463 27.133887,18.7982139 C26.44545,18.727533 26.0926733,18.7490206 25.5890506,18.957628 C25.2853051,19.0834435 25.0602824,19.2266161 24.8386023,19.433484 Z M22.5,16.2098845 C21.6909821,14.036076 19.963924,12.3090179 17.7901155,11.5 L18,11.5 C18,9.01471863 20.0147186,7 22.5,7 C24.9852814,7 27,9.01471863 27,11.5 C27,13.9852814 24.9852814,16 22.5,16 L22.5,16.2098845 L22.5,16.2098845 Z M9.21617932,17.3972901 C9.92871941,14.8192907 12.2850174,13 15,13 C18.3137085,13 21,15.6862915 21,19 C21,19.3001708 20.9780367,19.5972394 20.9346225,19.889722 C20.8373081,20.5453314 21.3931266,21.1125094 22.0505703,21.028477 C22.1985847,21.0095583 22.3485666,21 22.5,21 C24.4329966,21 26,22.5670034 26,24.5 C26,26.4329966 24.4329966,28 22.5,28 L7,28 C4.23857625,28 2,25.7614237 2,23 C2,20.2385763 4.23857625,18 7,18 C7.35480121,18 7.70420005,18.0367971 8.04461716,18.1090783 C8.5619125,18.2189162 9.07529737,17.9070068 9.21617932,17.3972901 Z" sketch:type="MSShapeGroup"></path>
            </g>
        </g>
    </g>
</svg>

<svg width="32" height="32" xmlns="http://www.w3.org/2000/svg"><path d="M23.795 19.081A3.988 3.988 0 0 0 23 19c0-.693-.088-1.365-.253-2.005a5.5 5.5 0 1 0-5.742-5.742 8.014 8.014 0 0 0-2.93-.199c.075-.176.213-.326.447-.522-.083.07.367-.299.492-.41a3.51 3.51 0 0 0 .952-1.328c.286-.69.317-1.191.23-2.03-.052-.516-.051-.683.023-.88.048-.13.133-.257.27-.394.138-.138.266-.223.394-.271.198-.074.365-.075.881-.022.839.086 1.34.055 2.03-.23a3.51 3.51 0 0 0 1.328-.953c.111-.125.48-.575.41-.492.336-.4.537-.522.968-.522.43 0 .632.121.968.522-.07-.083.299.367.41.492.379.421.78.725 1.328.952.69.286 1.191.317 2.03.23.516-.052.683-.051.88.023.13.048.257.133.394.27.138.138.223.266.271.394.074.198.075.365.022.881-.086.839-.055 1.34.23 2.03.228.548.532.95.953 1.328.125.111.575.48.492.41.4.336.522.537.522.968 0 .43-.121.632-.522.968.083-.07-.367.299-.492.41a3.51 3.51 0 0 0-.952 1.328c-.286.69-.317 1.191-.23 2.03.052.516.051.683-.023.88a1.113 1.113 0 0 1-.27.394 1.113 1.113 0 0 1-.394.271c-.198.074-.365.075-.881.022-.839-.086-1.34-.055-2.03.23-.599.249-.985.555-1.41 1.048Zm1.044.352C26.595 20.27 28 22.223 28 24.5a5.5 5.5 0 0 1-5.5 5.5H7a7 7 0 0 1-7-7c0-3.866 4-7 7.5-7 .964-2.334 3.049-4.111 5.51-4.746.055-.628.33-1.038.871-1.49-.066.056.36-.293.465-.387.317-.284.531-.567.696-.966.209-.504.23-.856.16-1.545-.07-.672-.067-.94.08-1.334a2.1 2.1 0 0 1 .5-.75 2.1 2.1 0 0 1 .75-.5c.394-.147.662-.15 1.334-.08.689.07 1.041.049 1.545-.16.399-.165.682-.38.966-.696.094-.105.443-.531.388-.465.508-.608.963-.881 1.735-.881.772 0 1.227.273 1.735.881-.055-.066.294.36.388.465.284.317.567.531.966.696.504.209.856.23 1.545.16.672-.07.94-.067 1.334.08.267.1.514.265.75.5.235.236.4.483.5.75.147.394.15.662.08 1.334-.07.689-.049 1.041.16 1.545.165.399.38.682.696.966.105.094.531.443.465.388.608.508.881.963.881 1.735 0 .772-.273 1.227-.881 1.735.066-.055-.36.294-.465.388a2.525 2.525 0 0 0-.696.966c-.209.504-.23.856-.16 1.545.07.672.067.94-.08 1.334a2.1 2.1 0 0 1-.5.75 2.1 2.1 0 0 1-.75.5c-.394.147-.662.15-1.334.08-.689-.07-1.041-.049-1.545.16a2.362 2.362 0 0 0-.75.475ZM22.5 16.21a8.024 8.024 0 0 0-4.71-4.71H18a4.5 4.5 0 1 1 4.5 4.5v.21ZM9.216 17.397a6 6 0 0 1 11.718 2.492 1 1 0 0 0 1.117 1.14A3.5 3.5 0 1 1 22.5 28l-15.501-.001a5 5 0 1 1 1.045-9.89 1 1 0 0 0 1.171-.713Z" fill="#000" fill-rule="evenodd"/></svg>
